X: 1
T: Denis Lanctot's
M: 4/4
L: 1/8
R: reel
K: Dmix
Q:333
C:Jerry Holland
S:http://www.cranfordpub.com
R:Reel
O:Cape Breton Island
B:Jerry Holland the 2nd Collection, 2000
N:http://www.jerryholland.com
D:Fiddler's Choice
H:Copyrights Fiddlestick Music, SOCAN
Z:c, (re-formatted,updated 9/19/04)
K:DMix
g| fdAD D/D/D FA| GECD EFGB|AD F/E/D FGAd| ^cdef gbag|
fdAD D/D/D FA| GECD EFGB| AGFD D/D/D FA| Bde^c d2 d:|
|:f| gaba ad d/d/d| gc c/c/c gfeg| faba adfa|gceg fddf|
gaba ad d/d/d| gc c/c/c gfeg|f2 af gceg| afge fdd:|
